X: 1
T:Larry Downs' -- Reel
M:2/4
L:1/16
R:reel
B:Ryan's Mammoth Collection
N:279
Z:Contributed by Ray Davies,  ray:davies99.freeserve.co.uk
K:E
v((3EFE)u(GB) egbg | (3fff(fe) gfec | ((3EFE)(GB) egbg | fe(gf) e4  |
 ((3EFE) (GB) egbg | (3fff(fe) gfec | ((3EFE)(GB) egbg | fegf  e4  :|
|:vgebe gbeg | fege fece | gebe gbeg | fegf e3e |
   gebe gbeg | fe(ge) c4   | BEGB EGBg | fegf e4  :|
